X:80
T: Der Jaeger im Tannenholz
N: Q0151C
O: Suedosteuropa, Jugoslawien, Batschka, Vinkovci, Neudorf
R: Ballade, abgewiesener Freier, Abschied
M: 6/8
L: 1/16
K: C
E2 | E4E2F4E2 | E6D4
A2 | A4G2D2E2F2 | E6z4
EE | C2E2G2c4d2 | c4A2B4
A2 | G2G2D2F4E2 | C6z4
EE | C2E2G2c4d2 | c4A2B4
A2 | G2G2D2F4E2 | C6z4

@@@ Tune index: 1683
